X: 107
T: Tom Billy's Reel
R: reel
Z: 2012 John Chambers <jc@trillian.mit.edu>
B: "100 Essential Irish Session Tunes" 1995 Dave Mallinson, ed.
M: 4/4
L: 1/8
K: D
A |\
"D"d3A BAFB | AF~F2 "A"EFDE | "D"F2AF "G"G2BG | "A"ABde fgfe |
"D"d2dA BAFB | AF~F2 "A"EFDE | "D"F2AF "G"G2BG | "A"ABde "D"fd d :|
|: e |\
"D"faab afdf | "G(Em)"gefd "A"edBe | "D"faab afdB | "A"ABde fede |
"D"faab afdf | "G(Em)"gefd "A"edBA | "D"F2AF "G"G2BG | "A"ABde "D"fd d :|

%%sep 2 1 500
%%sep 1 1 500

